X: 16588
T: Hand Me Down The Tackle
R: reel
M: 4/4
K: Dmajor
d2 D2 F ~A3|dfaf gfec|d2 D2 F ~A3|(3B/c/d/ AF EDEF|
D2D2 FDFA|dfaf gfec|d2dc dBAF|GFEF GABc:|
~d2fd Adfd|~d2fd BABc|~d2fd Adfd|(3B/c/d/ AF EDEF|
~d2fd Adfd|(3B/c/d/ ef g2fg|afge fded|(3B/c/d/ AF EDEF||
~d2fd Adfd|~d2fd BABc|~d2fd Adfd|B/c/d/ AF .E2 z2|
~a3b agfa|~g3g- gbag|fAeA dBAF|GFEF GABc||

